img/prop-icon3.svg

<svg width="30" height="30" viewBox="0 0 30 30" fill="none" xmlns="http://www.w3.org/2000/svg">
<path d="M26.25 23.4375H3.75C3.50136 23.4375 3.2629 23.3387 3.08709 23.1629C2.91127 22.9871 2.8125 22.7486 2.8125 22.5V19.6875C2.8125 19.4389 2.91127 19.2004 3.08709 19.0246C3.2629 18.8488 3.50136 18.75 3.75 18.75H26.25C26.4986 18.75 26.7371 18.8488 26.9129 19.0246C27.0887 19.2004 27.1875 19.4389 27.1875 19.6875V22.5C27.1875 22.7486 27.0887 22.9871 26.9129 23.1629C26.7371 23.3387 26.4986 23.4375 26.25 23.4375ZM4.6875 21.5625H25.3125V20.625H4.6875V21.5625Z" fill="#E0E3E4"/>
<path d="M26.25 23.4375H3.75C3.50136 23.4375 3.2629 23.3387 3.08709 23.1629C2.91127 22.9871 2.8125 22.7486 2.8125 22.5V16.875C2.8125 16.1291 3.10882 15.4137 3.63626 14.8863C4.16371 14.3588 4.87908 14.0625 5.625 14.0625H24.375C25.1209 14.0625 25.8363 14.3588 26.3637 14.8863C26.8912 15.4137 27.1875 16.1291 27.1875 16.875V22.5C27.1875 22.7486 27.0887 22.9871 26.9129 23.1629C26.7371 23.3387 26.4986 23.4375 26.25 23.4375ZM4.6875 21.5625H25.3125V16.875C25.3125 16.6264 25.2137 16.3879 25.0379 16.2121C24.8621 16.0363 24.6236 15.9375 24.375 15.9375H5.625C5.37636 15.9375 5.1379 16.0363 4.96209 16.2121C4.78627 16.3879 4.6875 16.6264 4.6875 16.875V21.5625Z" fill="#E0E3E4"/>
<path d="M24.375 15.9375H5.625C5.37636 15.9375 5.1379 15.8387 4.96209 15.6629C4.78627 15.4871 4.6875 15.2486 4.6875 15V9.375C4.6875 8.62908 4.98382 7.91371 5.51126 7.38626C6.03871 6.85882 6.75408 6.5625 7.5 6.5625H22.5C23.2459 6.5625 23.9613 6.85882 24.4887 7.38626C25.0162 7.91371 25.3125 8.62908 25.3125 9.375V15C25.3125 15.2486 25.2137 15.4871 25.0379 15.6629C24.8621 15.8387 24.6236 15.9375 24.375 15.9375ZM6.5625 14.0625H23.4375V9.375C23.4375 9.12636 23.3387 8.8879 23.1629 8.71209C22.9871 8.53627 22.7486 8.4375 22.5 8.4375H7.5C7.25136 8.4375 7.0129 8.53627 6.83709 8.71209C6.66127 8.8879 6.5625 9.12636 6.5625 9.375V14.0625Z" fill="#E0E3E4"/>
<path d="M24.375 21.5625H23.4375C22.9197 21.5625 22.5 21.9822 22.5 22.5V23.4375C22.5 23.9553 22.9197 24.375 23.4375 24.375H24.375C24.8928 24.375 25.3125 23.9553 25.3125 23.4375V22.5C25.3125 21.9822 24.8928 21.5625 24.375 21.5625Z" fill="#E0E3E4"/>
<path d="M6.5625 21.5625H5.625C5.10723 21.5625 4.6875 21.9822 4.6875 22.5V23.4375C4.6875 23.9553 5.10723 24.375 5.625 24.375H6.5625C7.08027 24.375 7.5 23.9553 7.5 23.4375V22.5C7.5 21.9822 7.08027 21.5625 6.5625 21.5625Z" fill="#E0E3E4"/>
<path d="M12.1875 15.9375H10.3125C9.81522 15.9375 9.33831 15.74 8.98668 15.3883C8.63504 15.0367 8.4375 14.5598 8.4375 14.0625V13.125C8.4375 12.6277 8.63504 12.1508 8.98668 11.7992C9.33831 11.4475 9.81522 11.25 10.3125 11.25H12.1875C12.6848 11.25 13.1617 11.4475 13.5133 11.7992C13.865 12.1508 14.0625 12.6277 14.0625 13.125V14.0625C14.0625 14.5598 13.865 15.0367 13.5133 15.3883C13.1617 15.74 12.6848 15.9375 12.1875 15.9375ZM10.3125 13.125V14.0625H12.1875V13.125H10.3125ZM19.6875 15.9375H17.8125C17.3152 15.9375 16.8383 15.74 16.4867 15.3883C16.135 15.0367 15.9375 14.5598 15.9375 14.0625V13.125C15.9375 12.6277 16.135 12.1508 16.4867 11.7992C16.8383 11.4475 17.3152 11.25 17.8125 11.25H19.6875C20.1848 11.25 20.6617 11.4475 21.0133 11.7992C21.365 12.1508 21.5625 12.6277 21.5625 13.125V14.0625C21.5625 14.5598 21.365 15.0367 21.0133 15.3883C20.6617 15.74 20.1848 15.9375 19.6875 15.9375ZM17.8125 13.125V14.0625H19.6875V13.125H17.8125Z" fill="#E0E3E4"/>
</svg>

<svg width="30" height="30" fill="none" xmlns="http://www.w3.org/2000/svg"><path d="M26.25 23.438H3.75a.938.938 0 01-.938-.938v-2.813a.937.937 0 01.938-.937h22.5a.938.938 0 01.938.938V22.5a.938.938 0 01-.938.938zM4.687 21.563h20.625v-.938H4.688v.938z" fill="#E0E3E4"/><path d="M26.25 23.438H3.75a.938.938 0 01-.938-.938v-5.625a2.812 2.812 0 012.813-2.813h18.75a2.812 2.812 0 012.813 2.813V22.5a.938.938 0 01-.938.938zM4.687 21.563h20.625v-4.688a.938.938 0 00-.937-.938H5.625a.938.938 0 00-.938.938v4.688z" fill="#E0E3E4"/><path d="M24.375 15.938H5.625A.938.938 0 014.687 15V9.375A2.813 2.813 0 017.5 6.562h15a2.812 2.812 0 012.813 2.813V15a.938.938 0 01-.938.938zM6.562 14.062h16.875V9.375a.938.938 0 00-.937-.938h-15a.937.937 0 00-.938.938v4.688zm17.813 7.501h-.938a.937.937 0 00-.937.937v.938c0 .517.42.937.938.937h.937c.518 0 .938-.42.938-.938V22.5a.937.937 0 00-.938-.938zm-17.812 0h-.938a.937.937 0 00-.938.937v.938c0 .517.42.937.938.937h.938c.517 0 .937-.42.937-.938V22.5a.937.937 0 00-.938-.938z" fill="#E0E3E4"/><path d="M12.188 15.938h-1.876a1.875 1.875 0 01-1.874-1.876v-.937a1.875 1.875 0 011.874-1.875h1.876a1.875 1.875 0 011.874 1.875v.938a1.875 1.875 0 01-1.874 1.874zm-1.876-2.813v.938h1.876v-.938h-1.876zm9.376 2.813h-1.875a1.875 1.875 0 01-1.875-1.876v-.937a1.875 1.875 0 011.874-1.875h1.875a1.875 1.875 0 011.875 1.875v.938a1.875 1.875 0 01-1.875 1.874zm-1.875-2.813v.938h1.875v-.938h-1.875z" fill="#E0E3E4"/></svg>
